X: 403
T: A Trip Down Memory Lane
R: jig
M: 6/8
K: Gmajor
|GdG FGA|GDd cAF|GBd {g}ecA|dBG cAF|
GBd cec|dBG AFD|GDB, CB,C|DAF G2D|
(3GFG D FGA|GDd cAF|GBd ecA|~d3 cAF|
GBd efg|dBG AFD|GDB, CB,C|DAF G3|
|:~G2D GBd|eaf g2f|ecG dBG|cAG FAD|
GBd cec|dBG AFD|GDB, CB,C|DAF G2D:|

